icon-themes/breeze_svg/cmd/32/iconsetformatdialog.svg

<svg viewBox="0 0 32 32" xmlns="http://www.w3.org/2000/svg"><path d="m25.580078 16.730469-2.080078 3.269531h-6.5v1h5.863281l-1.910156 3h-3.953125v1h3.318359l-1.738281 2.730469.84375.537109 2.080078-3.267578h6.496094v-1h-5.861328l1.910156-3h3.951172v-1h-3.314453l1.738281-2.732422z" fill="#4d4d4d"/><path d="m10 5.9980469v4h17.970703v-4zm0 7.0000001v.001953 4h12v-4h-.029297v-.001953zm0 8v4h5.970703v-4z" fill="#b3b3b3"/><path d="m4 6v4h4v-4z" fill="#da4453"/><path d="m4 13v4h4v-4z" fill="#fdbc4b"/><path d="m4 21v4h4v-4z" fill="#2ecc71"/></svg>

<svg xmlns="http://www.w3.org/2000/svg" viewBox="0 0 32 32">
  <path
     style="fill:#4d4d4d"
     d="M 25.580078 16.730469 L 23.5 20 L 17 20 L 17 21 L 22.863281 21 L 20.953125 24 L 17 24 L 17 25 L 20.318359 25 L 18.580078 27.730469 L 19.423828 28.267578 L 21.503906 25 L 28 25 L 28 24 L 22.138672 24 L 24.048828 21 L 28 21 L 28 20 L 24.685547 20 L 26.423828 17.267578 L 25.580078 16.730469 z "
     id="path4" />
  <path
     style="fill:#b3b3b3"
     d="M 10 5.9980469 L 10 9.9980469 L 27.970703 9.9980469 L 27.970703 5.9980469 L 10 5.9980469 z M 10 12.998047 L 10 13 L 10 17 L 22 17 L 22 13 L 21.970703 13 L 21.970703 12.998047 L 10 12.998047 z M 10 20.998047 L 10 24.998047 L 15.970703 24.998047 L 15.970703 20.998047 L 10 20.998047 z "
     id="path38" />
  <path
     style="fill:#da4453"
     d="M 4 6 L 4 10 L 8 10 L 8 6 L 4 6 z "
     id="rect4375" />
  <path
     style="fill:#fdbc4b"
     d="M 4 13 L 4 17 L 8 17 L 8 13 L 4 13 z "
     id="rect4375-3" />
  <path
     style="fill:#2ecc71"
     d="M 4 21 L 4 25 L 8 25 L 8 21 L 4 21 z "
	 />
</svg>
